X:465
T:Honest John
C:Traditional American
B:Northern Junket Vol. 1, No. 9, 1950 - Ralph Page
S:Colin Hume's website,  colinhume.com  - chords can also be printed below the stave.
Q:1/2=120
L:1/4
M:2/2
R:Reel
%%MIDI ratio 3 1
K:G
e | "G"dB c/B/A/G/ | "Am"AG E>F | "G"GG G/A/B/c/ | d2 Be |\
"G"dB c/B/A/G/ | "Am"AG E>G | "D7"FA DE/F/ | "G"G2 G>B |
"D7"A2 B2 | c3 B | A2 B2 | cB A2 |\
"G"B2 c2 | d3 c | B2 c2 | d4 |
"G"dd BB | GA B2 | "D7"AB c2 | "G"Bc d2 |\
"G"dd BB | GA B2 | "D7"Ac BA | "G"G3 e |
"G"dB c/B/A/G/ | "Am"AG E>F | "G"GG G/A/B/c/ | d2 Be |\
"G"dB c/B/A/G/ | "Am"AG E>G | "D7"FA DE/F/ | "G"G2 GA |
"G"Bd ef | gd BG | Bd ef | "A7"g2 "D7"fg/f/ |\
"G"ed BG | "C"AG E>G | "D7"FA DE/F/ | "G"G2 G2 |]

